symbols/web/rtt/materialsymbolsrounded/rtt_wght200_20px.svg

<svg xmlns="http://www.w3.org/2000/svg" height="20" width="20"><path d="M9.208 16.896q-.208 0-.354-.156-.146-.157-.146-.365t.146-.354q.146-.146.354-.146h1.48l1.895-11.771H9.771q-.188 0-.323.115-.136.114-.177.323l-.459 2.791q-.02.209-.156.323-.135.115-.344.115-.229 0-.395-.188-.167-.187-.125-.416l.479-2.875q.083-.521.469-.865.385-.344.927-.344h6.666q.667 0 1.084.5.416.5.312 1.125l-.396 2.604q-.041.209-.177.334-.135.125-.344.125-.229 0-.385-.188-.156-.187-.115-.416l.396-2.479q.021-.23-.114-.407-.136-.177-.386-.177h-2.625l-1.854 11.771h1.333q.209 0 .355.146.145.146.145.354 0 .229-.145.375-.146.146-.355.146ZM3.979 5.5q-.187 0-.323-.146-.135-.146-.135-.312 0-.188.146-.323.145-.136.333-.136h3.125L7 5.5Zm-.5 3.312q-.187 0-.323-.145-.135-.146-.135-.313 0-.187.146-.323.145-.135.312-.135h3.146l-.125.916Zm-.937 6.626q-.188 0-.334-.146-.146-.146-.146-.313 0-.187.146-.323.146-.135.334-.135h5.041l-.125.917Zm.52-3.313q-.166 0-.312-.146t-.146-.312q0-.188.146-.323.146-.136.333-.136h5.042L8 12.125Z"/></svg>

<svg xmlns="http://www.w3.org/2000/svg" height="20" width="20"><path d="M9.208 16.896Q9 16.896 8.854 16.74Q8.708 16.583 8.708 16.375Q8.708 16.167 8.854 16.021Q9 15.875 9.208 15.875H10.688L12.583 4.104H9.771Q9.583 4.104 9.448 4.219Q9.312 4.333 9.271 4.542L8.812 7.333Q8.792 7.542 8.656 7.656Q8.521 7.771 8.312 7.771Q8.083 7.771 7.917 7.583Q7.75 7.396 7.792 7.167L8.271 4.292Q8.354 3.771 8.74 3.427Q9.125 3.083 9.667 3.083H16.333Q17 3.083 17.417 3.583Q17.833 4.083 17.729 4.708L17.333 7.312Q17.292 7.521 17.156 7.646Q17.021 7.771 16.812 7.771Q16.583 7.771 16.427 7.583Q16.271 7.396 16.312 7.167L16.708 4.688Q16.729 4.458 16.594 4.281Q16.458 4.104 16.208 4.104H13.583L11.729 15.875H13.062Q13.271 15.875 13.417 16.021Q13.562 16.167 13.562 16.375Q13.562 16.604 13.417 16.75Q13.271 16.896 13.062 16.896ZM3.979 5.5Q3.792 5.5 3.656 5.354Q3.521 5.208 3.521 5.042Q3.521 4.854 3.667 4.719Q3.812 4.583 4 4.583H7.125L7 5.5ZM3.479 8.812Q3.292 8.812 3.156 8.667Q3.021 8.521 3.021 8.354Q3.021 8.167 3.167 8.031Q3.312 7.896 3.479 7.896H6.625L6.5 8.812ZM2.542 15.438Q2.354 15.438 2.208 15.292Q2.062 15.146 2.062 14.979Q2.062 14.792 2.208 14.656Q2.354 14.521 2.542 14.521H7.583L7.458 15.438ZM3.062 12.125Q2.896 12.125 2.75 11.979Q2.604 11.833 2.604 11.667Q2.604 11.479 2.75 11.344Q2.896 11.208 3.083 11.208H8.125L8 12.125Z"/></svg>
